img/our-team/linkedin.svg

<svg width="20" height="20" viewBox="0 0 20 20" fill="none" xmlns="http://www.w3.org/2000/svg">
<path fill-rule="evenodd" clip-rule="evenodd" d="M3.0201 0H16.9799C18.6479 0 20 1.35228 20 3.0204V16.9796C20 18.6477 18.6479 20 16.9799 20H3.0201C1.35214 20 0 18.6477 0 16.9796V3.0204C0 1.35228 1.35214 0 3.0201 0ZM6.3992 16.7858V7.69647H3.3784V16.7858H6.3992ZM4.88919 6.45474C5.9426 6.45474 6.5983 5.75678 6.5983 4.88458C6.57866 3.99271 5.94264 3.31413 4.90919 3.31413C3.8759 3.31413 3.2002 3.99272 3.2002 4.88458C3.2002 5.75683 3.85573 6.45474 4.8695 6.45474H4.88913H4.88919ZM11.0918 16.7854H8.07096L8.07103 16.7853C8.07103 16.7853 8.11067 8.54885 8.07103 7.69597H11.0918V8.9829C11.4933 8.36358 12.2119 7.48275 13.8143 7.48275C15.8018 7.48275 17.2921 8.78178 17.2921 11.5737V16.7854H14.2715V11.9228C14.2715 10.7009 13.8342 9.86739 12.7411 9.86739C11.9066 9.86739 11.4095 10.4295 11.1912 10.9723C11.1114 11.1665 11.0918 11.4379 11.0918 11.7095V16.7854Z" fill="#006699"/>
</svg>

<svg width="20" height="20" fill="none" xmlns="http://www.w3.org/2000/svg"><path fill-rule="evenodd" clip-rule="evenodd" d="M3.02 0h13.96A3.02 3.02 0 0120 3.02v13.96A3.02 3.02 0 0116.98 20H3.02A3.02 3.02 0 010 16.98V3.02A3.02 3.02 0 013.02 0zM6.4 16.786v-9.09H3.377v9.09H6.4zM4.89 6.455c1.053 0 1.708-.698 1.708-1.57-.02-.892-.655-1.57-1.689-1.57-1.033 0-1.709.678-1.709 1.57 0 .872.656 1.57 1.67 1.57h.02zm6.202 10.33H8.07s.04-8.236 0-9.089h3.02v1.287c.402-.62 1.12-1.5 2.723-1.5 1.988 0 3.478 1.299 3.478 4.09v5.212h-3.02v-4.862c0-1.222-.438-2.056-1.53-2.056-.835 0-1.333.563-1.55 1.105-.08.194-.1.466-.1.738v5.075z" fill="#069"/></svg>
